module-10/img/icon-svg/pinterest.svg

<svg version="1.1" xmlns="http://www.w3.org/2000/svg"
width="23" height="29">
<path fill="rgb(243,129,129)" stroke="none" paint-order="stroke fill markers" fill-rule="evenodd" d=" M 10.050758361816406 17.85367751121521 C 9.841560363769531 18.686955094337463 9.631217956542969 19.56010675430298 9.412864685058594 20.414227604866028 C 9.197601318359375 21.255812287330627 9.008430480957031 22.110084176063538 8.695320129394531 22.88370168209076 C 8.176216125488281 24.165260553359985 7.516807556152344 25.40316939353943 6.6517486572265625 26.40515661239624 C 6.077140808105469 27.07214117050171 6.199363708496094 26.805709838867188 6.026214599609375 26.76991379261017 C 5.894264221191406 26.742424845695496 5.882591247558594 26.613136172294617 5.856727600097656 26.425395727157593 C 5.715965270996094 25.40679430961609 5.811866760253906 24.230206966400146 5.8643951416015625 23.085790753364563 C 5.9239044189453125 21.782180309295654 6.197990417480469 20.698028326034546 6.452507019042969 19.614933609962463 C 6.937049865722656 17.55145013332367 7.398933410644531 15.527840733528137 7.8877105712890625 13.45121693611145 C 7.920440673828125 13.313017010688782 8.00787353515625 13.084647297859192 7.9776611328125 13.005956411361694 C 7.756103515625 12.428990602493286 7.612251281738281 11.911080718040466 7.549079895019531 11.305417656898499 C 7.4761810302734375 10.609886884689331 7.532142639160156 9.961328983306885 7.688468933105469 9.362311601638794 C 7.964500427246094 8.304440259933472 8.601249694824219 7.366795301437378 9.582351684570312 7.024089694023132 C 10.2060546875 6.807651996612549 10.89727783203125 6.905524730682373 11.316818237304688 7.156399130821228 C 11.749176025390625 7.414523363113403 12.045578002929688 7.822779536247253 12.184051513671875 8.401557803153992 C 12.331565856933594 9.017189383506775 12.222846984863281 9.752745270729065 12.104171752929688 10.293461918830872 C 11.837066650390625 11.511735796928406 11.486305236816406 12.426573991775513 11.167243957519531 13.602708220481873 C 11.009086608886719 14.186168670654297 10.830215454101562 14.785186052322388 10.97784423828125 15.414562106132507 C 11.113685607910156 15.992736220359802 11.414665222167969 16.391023874282837 11.825279235839844 16.689626336097717 C 12.250656127929688 16.99955666065216 12.754539489746094 17.169323563575745 13.449882507324219 17.14500641822815 C 14.677604675292969 17.10211157798767 15.530990600585938 16.317015171051025 16.101478576660156 15.57677710056305 C 17.013572692871094 14.392335772514343 17.566322326660156 12.793143630027771 17.775978088378906 10.890666842460632 C 17.84349822998047 10.277300834655762 17.893051147460938 9.572254657745361 17.845672607421875 8.876572847366333 C 17.758468627929688 7.592748403549194 17.356666564941406 6.560402512550354 16.719345092773438 5.759900212287903 C 16.11292266845703 4.997459530830383 15.253013610839844 4.39073920249939 14.207481384277344 4.049241900444031 C 13.170417785644531 3.710614323616028 11.734756469726562 3.5979398488998413 10.459541320800781 3.816190004348755 C 8.1424560546875 4.213118314743042 6.507896423339844 5.530322194099426 5.5453338623046875 7.348972797393799 C 5.040992736816406 8.300815343856812 4.7080841064453125 9.396295189857483 4.7080841064453125 10.75896155834198 C 4.7080841064453125 11.809734106063843 4.9674072265625 12.62398087978363 5.3860321044921875 13.25879430770874 C 5.518669128417969 13.46012818813324 5.714134216308594 13.625968098640442 5.844482421875 13.855999231338501 C 6.029075622558594 14.181939601898193 5.815986633300781 14.667225241661072 5.724662780761719 15.020050406455994 C 5.6149139404296875 15.445071816444397 5.603240966796875 16.03215718269348 5.1067962646484375 16.042276740074158 C 4.9014892578125 16.045901656150818 4.643196105957031 15.895618677139282 4.468788146972656 15.799105286598206 C 3.164276123046875 15.077898025512695 2.3715438842773438 13.76598048210144 2.0466461181640625 12.064837574958801 C 1.8492355346679688 11.031283378601074 1.849578857421875 9.82554566860199 2.0466461181640625 8.826579213142395 C 2.2370758056640625 7.8603880405426025 2.5914993286132812 6.968658685684204 2.9836883544921875 6.245638966560364 C 3.7979354858398438 4.742960214614868 4.990638732910156 3.541451573371887 6.4425506591796875 2.6831016540527344 C 7.558692932128906 2.0226117372512817 8.818000793457031 1.5601328611373901 10.34979248046875 1.3372005224227905 C 10.858253479003906 1.2627387046813965 11.384223937988281 1.2322289943695068 11.954826354980469 1.2054952383041382 C 13.622688293457031 1.1268043518066406 15.139373779296875 1.504701852798462 16.280921936035156 2.014908790588379 C 17.486099243164062 2.5536619424819946 18.44751739501953 3.2713953256607056 19.261077880859375 4.160708069801331 C 20.098556518554688 5.0755462646484375 20.708641052246094 6.140214323997498 21.09545135498047 7.4699543714523315 C 21.29663848876953 8.161860227584839 21.492904663085938 8.902249336242676 21.492904663085938 9.756974339485168 C 21.492904663085938 10.614720106124878 21.311630249023438 11.369910955429077 21.18505859375 12.125101804733276 C 20.711044311523438 14.953291535377502 19.36602020263672 17.265987992286682 17.347396850585938 18.582587718963623 C 16.857818603515625 18.901429295539856 16.265586853027344 19.195953726768494 15.593017578125 19.392001271247864 C 14.925941467285156 19.586387395858765 14.165138244628906 19.731837153434753 13.350204467773438 19.67519783973694 C 12.558616638183594 19.620975136756897 11.911453247070312 19.4057457447052 11.366714477539062 19.09823203086853 C 10.826553344726562 18.792983889579773 10.372566223144531 18.419315457344055 10.050758361816406 17.85367751121521 Z"/>
</svg>

<svg xmlns="http://www.w3.org/2000/svg" width="23" height="29"><path fill="#F38181" paint-order="stroke fill markers" fill-rule="evenodd" d="M10.0508 17.8537c-.2092.8333-.4196 1.7064-.638 2.5605-.2152.8416-.4044 1.6959-.7175 2.4695-.519 1.2816-1.1785 2.5195-2.0436 3.5215-.5746.667-.4523.4005-.6255.3647-.132-.0275-.1436-.1568-.1695-.3445-.1407-1.0186-.0448-2.1952.0077-3.3396.0595-1.3036.3336-2.3878.5881-3.4709.4845-2.0634.9464-4.087 1.4352-6.1637.0327-.1382.1202-.3666.09-.4452-.2216-.577-.3654-1.095-.4286-1.7006-.073-.6955-.017-1.344.1394-1.943.276-1.058.9127-1.9956 1.8939-2.3383.6237-.2164 1.3149-.1186 1.7344.1323.4324.2581.7288.6664.8673 1.2452.1475.6156.0387 1.3511-.08 1.8919-.267 1.2182-.6178 2.133-.9369 3.3092-.1581.5835-.337 1.1825-.1894 1.8119.1359.5781.4369.9764.8475 1.275.4254.31.9292.4797 1.6246.4554 1.2277-.0429 2.081-.828 2.6516-1.5682.912-1.1845 1.4648-2.7837 1.6745-4.6861.0675-.6134.117-1.3184.0697-2.0141-.0872-1.2839-.489-2.3162-1.1264-3.1167-.6064-.7624-1.4663-1.3692-2.5118-1.7107-1.037-.3386-2.4727-.4513-3.748-.233-2.317.397-3.9516 1.7141-4.9142 3.5328-.5043.9518-.8372 2.0473-.8372 3.41 0 1.0507.2593 1.865.678 2.4998.1326.2013.328.3672.4584.5972.1846.326-.0285.8112-.1198 1.164-.1098.425-.1215 1.0122-.6179 1.0223-.2053.0036-.4636-.1467-.638-.2432-1.3045-.7212-2.0973-2.0331-2.4222-3.7343-.1974-1.0335-.197-2.2393 0-3.2382.1905-.9662.5449-1.858.937-2.581.8143-1.5026 2.007-2.7041 3.459-3.5625 1.116-.6605 2.3754-1.123 3.9072-1.3459.5085-.0745 1.0344-.105 1.605-.1317 1.6679-.0787 3.1846.2992 4.3261.8094 1.2052.5388 2.1666 1.2565 2.9802 2.1458.8375.9148 1.4475 1.9795 1.8344 3.3093.2011.6919.3974 1.4322.3974 2.287 0 .8577-.1813 1.613-.3078 2.3681-.474 2.8282-1.819 5.1409-3.8377 6.4575-.4896.3188-1.0818.6134-1.7544.8094-.667.1944-1.4279.3398-2.2428.2832-.7916-.0542-1.4387-.2695-1.9835-.577-.5401-.3052-.9941-.6789-1.316-1.2445z"/></svg>
